X:15
T: Andy McGann's #1
S: Andy McGann
C:  Lad O'Beirne
Z: B.Black
R: reel
M: 4/4
L: 1/8
K: C
gf || eccB cGEG | FEDC B,DGF | EFGE FAdc |\
Bg^fg agfg |
eccB cGEG | FEDC B,DGF | EF (3GFE FAdc |\
Bg^fg eccB ||
c2 gc ecgc | c2 ag ^fgdB | c2 gc ecgc |\
BG G2 BcdB |
c2 gc ecgc|c2 ag ^fgdB |cg (3g^fg eg (3g^fg |\
ag^fa g2 ||
